X: 16
T: When Sick Is It Tea That You Want?
Z: UPipes & harp
S: https://thesession.org/tunes/427#setting48308
R: jig
M: 6/8
L: 1/8
K: Dmaj
F/G/|:Add dcB|{c}AFB {c}AFG|AdB cde|fdB {c}BAF|
Add fdB|{c}AFB {c}AFG|AdB cde|1 fdc d3:|2 fdc (4d>efg||
|:{b}afd dcd|{c}BGF (4G>fga|bge ede|cAA {c}AFG|
Add {a}fdB|{c}AFB {AB}AFG|A3 cde|1 fdc (4d>efg:|2 fdc d3||

